X:1
T:Title
%%score { ( 1 3 ) | ( 2 4 ) }
L:1/8
Q:1/4=106
M:4/4
K:D
V:1 treble nm="Grand Piano"
V:3 treble 
V:2 bass 
V:4 bass 
V:1
 [DF]2 [DF]2 [DF]2 [EG]2 | [FA]4 [FA]4 | [DF]2 [DF]2 [DF]2 [FA]2 | [FAd]6 z2 | %4
w: Ira~B.~Wilson * * *||||
 [Gc]2 [Gd]2 [Gc]2 [GB]2 | z4 G4 | [DF]2 [EG]2 [FA]2 [Fd]2 | [FA]6 z2 | ^A2 B2 c2 F2 | %9
w: |||||
 [DFBd]4 [DFBd]4 | [ce]2 [Bd]2 [Ac]2 [B,DGB]2 | [FA]6 z2 | [DE^G]2 [DGB]2 [EGe]2 [EGd]2 | %13
w: ||||
 [EAc]4 [DFB]4 | [CA]2 ^G2 [Ec]2 [EB]2 | [CEA]6[K:bass] z2 | [FA]2 z2 [FA]2 z2 | %17
w: ||||
 [FA]2 z2 [FA]2 z2 | z2 A2 z4 | A2 A>A A2 A2 | c4 B4 | A4 d4 | [E^Gd]2 [EGd]2 [EGd]2 [EGd]2 | %23
w: ||||||
 [EGc]2 [CEA]2 [DFB]2 [EGc]2 | d4 c4 | c4 B4 | [FA]2 B>F [FA]2 [DFAB]2 | =c8 | B4 e4 | A4 d4 | %30
w: |||||||
 z2 A2 z4 | D6[K:bass] z2 |] %32
w: ||
V:2
 D,2 A,2 A,,2 A,2 | D,2 F,>F, F,2 F,2 | D,2 A,2 A,,2 A,2 | D,2 F,>F, F,2 F,2 | E,2 A,2 A,,2 A,2 | %5
 E,2 A,,2 B,,2 C,2 | D,2 A,2 A,,2 A,2 | D,2 F,>F, F,2 F,2 | C,2 F,2 F,,2 F,2 | B,,2 F,2 D,2 B,,2 | %10
 G,,2 [G,B,D]2 [G,B,D]2 G,2 | A,,2 F,>F, F,2 F,2 | B,,2 E,2 E,,2 E,2 | A,,2 C,2 D,2 B,,2 | %14
 z2 B,2 z2 D2 | A,,2 G,,2 F,,2 E,,2 | [D,,D,]2 [F,A,D]>[F,A,D] [F,A,D]2 F,2 | %17
 A,,2 F,>F, [F,A,D]2[K:treble] [F,A,DF]2 | [A,DF]2 [B,DF]2 [A,DF]2 [B,DF]2 | %19
 [CE]2 [CE]>[CE] [CE]2 [CE]2 | A,,2 A,>A, A,2 A,2 | D,2 F,>F, B,,2 F,2 | E,2 F,>^G, F,2 E,2 | %23
 A,2 G,2 F,2 E,2 | D,2 F,>F, [F,A,D]2 F,2 | A,,2 F,>F, [F,A,D]2 F,2 | D,2 [F,A,D]2 D,2 A,2 | %27
 ^D,2 [F,A,^DF]>[F,A,DF] [F,A,DF]2 [F,A,DF]2 | E,2 [G,B,E]2 G,,2 [G,B,G]2 | %29
 A,,2 [F,A,D]2 B,,2 F,2 | G,,2 E,,2 [A,,A,]2 [A,,G,A,]2 | [D,F,]2 [A,,F,]2 D,,2 z2 |] %32
V:3
 x8 | z2 [A,D]>[A,D] [A,D]2 [A,D]2 | x8 | z2 [A,D]>[A,D] [A,D]2 [A,D]2 | x8 | [CG]4 D2 E2 | x8 | %7
 z2 [A,D]>[A,D] [A,D]2 [A,D]2 | E4 E4 | x8 | x8 | z2 [A,D]>[A,D] [A,D]2 [A,D]2 | x8 | x8 | x8 | %15
 z2[K:bass] G,2 F,2 E,2 | d2- [FAd-]>[FAd] c2- [A,DFAc]2 | c2- [A,DFAc-]>[A,DFAc] B2- [AB]2 | %18
 A2 z z/ F,/ A2 A2 | x8 | [EG]2 [CEG]>[CEG] [CEG]2 [CEG]2 | [DF]2 [A,DF]>[A,DF] [DF]2 [A,DF]2 | %22
 x8 | x8 | [FA]2 [A,DFA]>[A,DFA] [FA]2 [A,DFA]2 | [FA]2 [A,DFA]>[A,DFA] [FA]2 [A,DFA]2 | x8 | %27
 [FA]2 A>A A2 A2 | z2 G2 z2 B2 | z2 F2 z2 [B,DF]2 | [B,E]2 [B,E]->[B,EG] F2 E2 | %31
 z2[K:bass] A,2 [F,A,]2 z2 |] %32
V:4
 x8 | x8 | x8 | x8 | x8 | x8 | x8 | x8 | x8 | x8 | x8 | x8 | x8 | x8 | E,,4 E,4 | x8 | x8 | %17
 x6[K:treble] x2 | x8 | G,8 | x8 | x8 | x8 | x8 | x8 | x8 | x8 | x8 | x8 | x8 | x8 | x8 |] %32

